src/assets/metronic/worbby/global/img/icon-benefits1.svg

<?xml version="1.0" encoding="UTF-8"?>
<svg width="80px" height="80px" viewBox="0 0 80 80" version="1.1" xmlns="http://www.w3.org/2000/svg" xmlns:xlink="http://www.w3.org/1999/xlink">
    <!-- Generator: Sketch 42 (36781) - http://www.bohemiancoding.com/sketch -->
    <title>icon-benefits1</title>
    <desc>Created with Sketch.</desc>
    <defs>
        <linearGradient x1="0%" y1="49.9979293%" x2="99.9874969%" y2="49.9979293%" id="linearGradient-1">
            <stop stop-color="#FFB247" offset="0%"></stop>
            <stop stop-color="#FFCB33" offset="100%"></stop>
        </linearGradient>
    </defs>
    <g id="Desktop" stroke="none" stroke-width="1" fill="none" fill-rule="evenodd">
        <g id="Desktop-Home-Worbbior" transform="translate(-255.000000, -1307.000000)">
            <g id="icon-benefits1" transform="translate(255.000000, 1307.000000)">
                <path d="M0.784313725,33.3782405 C0.784313725,51.4155542 15.4156863,66.0379669 33.4640523,66.0379669 L33.4640523,66.0379669 C51.5124183,66.0379669 66.1437908,51.4155542 66.1437908,33.3782405 L66.1437908,33.3782405 C66.1437908,15.3409267 51.5124183,0.718513982 33.4640523,0.718513982 L33.4640523,0.718513982 C15.4156863,0.718513982 0.784313725,15.3409267 0.784313725,33.3782405" id="Fill-25" fill="url(#linearGradient-1)"></path>
                <path d="M40.7806536,36.205397 C43.6538562,36.205397 46.7479739,37.7560808 49.5061438,40.5543662 C47.1048366,44.0972933 45.6786928,47.9851072 45.583268,51.2563054 C45.5100654,53.5503246 46.4120261,55.8874546 47.9858824,57.5021515 C49.349281,58.9065197 51.1309804,59.6825148 52.9976471,59.6825148 C54.8643137,59.6825148 56.6368627,58.9169708 58.010719,57.5021515 C59.583268,55.8874546 60.4852288,53.5503246 60.4120261,51.2563054 C60.3179085,47.9746561 58.8917647,44.0855358 56.500915,40.5543662 C59.259085,37.7560808 62.3518954,36.205397 65.2264052,36.205397 C71.528366,36.205397 73.783268,41.121339 73.783268,45.7106838 C73.783268,54.1800041 60.810719,66.3882098 53.0081046,72.3832292 C45.2067974,66.3790651 32.2237908,54.1800041 32.2237908,45.7015391 C32.2237908,41.1095815 34.4669281,36.205397 40.7806536,36.205397 M51.0264052,51.4130721 C51.0682353,49.6102552 51.7715033,47.4298918 52.9976471,45.2181751 C54.2355556,47.4298918 54.9388235,49.6207063 54.9806536,51.4130721 C55.0015686,52.2400163 54.6656209,53.1414248 54.1100654,53.7175424 C53.459085,54.3890263 52.5571242,54.3994774 51.8760784,53.7070912 C51.3309804,53.162327 50.9950327,52.2504674 51.0264052,51.4130721 M65.2264052,30.765593 C61.0420915,30.765593 56.7113725,32.7565299 53.0081046,36.3621637 C49.2969935,32.7473852 44.9754248,30.765593 40.7911111,30.765593 C32.4120261,30.765593 26.7806536,36.7606124 26.7806536,45.7015391 C26.7806536,60.0587548 50.3976471,77.2247071 51.404183,77.9602041 L52.9976471,79.1019882 L54.5819608,77.9602041 C55.5884967,77.2364646 79.2159477,60.2155215 79.2159477,45.7015391 C79.2159477,36.7606124 73.5950327,30.765593 65.2264052,30.765593" id="Fill-27" fill="#1E2225"></path>
            </g>
        </g>
    </g>
</svg>

<svg xmlns="http://www.w3.org/2000/svg" width="80" height="80"><defs><linearGradient id="a" x1="0%" x2="99.9875%" y1="49.9979%" y2="49.9979%"><stop stop-color="#FFB247" offset="0%"/><stop stop-color="#FFCB33" offset="100%"/></linearGradient></defs><g fill="none" fill-rule="evenodd"><path fill="url(#a)" d="M.7843 33.3782c0 18.0374 14.6314 32.6598 32.6798 32.6598S66.144 51.4156 66.144 33.3782C66.1438 15.341 51.5124.7185 33.464.7185 15.4158.7185.7844 15.341.7844 33.3782"/><path fill="#1E2225" d="M40.7807 36.2054c2.8732 0 5.9673 1.5507 8.7254 4.349-2.4012 3.543-3.8273 7.4307-3.9227 10.702-.0732 2.294.8287 4.631 2.4026 6.2458 1.3633 1.4043 3.145 2.1803 5.0116 2.1803 1.8667 0 3.6393-.7655 5.013-2.1803 1.5727-1.6147 2.4746-3.952 2.4014-6.246-.094-3.2815-1.5202-7.1707-3.911-10.7018 2.758-2.7983 5.851-4.349 8.7254-4.349 6.302 0 8.557 4.916 8.557 9.5053 0 8.4693-12.9727 20.6775-20.7753 26.6725C45.207 66.3792 32.224 54.18 32.224 45.7015c0-4.592 2.243-9.496 8.557-9.496M51.0263 51.413c.0418-1.8027.745-3.983 1.9712-6.1948 1.238 2.2117 1.9412 4.4025 1.983 6.195.021.8268-.315 1.7282-.8705 2.3043-.651.6715-1.553.682-2.234-.0104-.545-.5447-.881-1.4565-.8496-2.294m14.2-20.6474c-4.1843 0-8.515 1.991-12.2183 5.5966-3.711-3.6148-8.0326-5.5966-12.217-5.5966-8.379 0-14.0103 5.995-14.0103 14.936 0 14.3572 23.617 31.523 24.6235 32.2586l1.5934 1.1418 1.5844-1.1418c1.0065-.7237 24.634-17.7447 24.634-32.2587 0-8.941-5.621-14.936-13.9896-14.936"/></g></svg>
